X:122
T:Quan vei la lauzeta mover
C:Bernard de Ventadour
L:1/4
K:C
D | F2G | A2A | A (B/A/G/A/) | GzG | A2B |
B2A | (B/A/G/F/) G | A z c | d3/ (d/c) | (AG) (G/A/) | 
A2G | (G!breath!F) F | G2A | c2A | F3/(G/F) | (E!breath!D) A |
(B/A/G)A | B3/c/B | (c2d) | G zA | c2A |
B(A/G/A) | F(A/G/E) | FzG | A2B | c2A | (GE)F |
(E/D/!breath!E) | G2A | F3/(G/F) | (E/C/)(DE) | (E/F/G/F/D) |]





